packages/foundations/assets/icons/functional/images/notification/bell_12_filled.svg

<svg width="12" height="12" viewBox="0 0 12 12" fill="none" xmlns="http://www.w3.org/2000/svg">
<g clip-path="url(#clip0_2214_8042)">
<path fill-rule="evenodd" clip-rule="evenodd" d="M5.99417 1.20001C8.03267 1.20001 9.39167 2.69854 9.39167 4.93468V7.2761C9.39167 8.02539 9.48539 8.16588 9.91889 8.48197C10.1063 8.61076 10.2 8.79807 10.2 8.98538C10.2 9.26635 9.98999 9.58245 9.66113 9.58245H7.20089V9.59414C7.20089 10.2615 6.66197 10.8 5.99417 10.8C5.37329 10.8 4.78751 10.2615 4.78751 9.58245H2.39753C2.02265 9.58245 1.80005 9.27804 1.80005 8.97369C1.80005 8.80977 1.85861 8.64584 2.01095 8.5288C2.50295 8.2127 2.59673 8.03709 2.59673 7.24096V5.09854C2.59673 2.76881 3.92057 1.20001 5.99417 1.20001Z" fill="#1A1C1F"/>
</g>
<defs>
<clipPath id="clip0_2214_8042">
<rect width="12" height="12" fill="white"/>
</clipPath>
</defs>
</svg>

<svg xmlns="http://www.w3.org/2000/svg" width="12" height="12" fill="none"><g clip-path="url(#a)"><path fill="#1A1C1F" fill-rule="evenodd" d="M5.994 1.2c2.039 0 3.398 1.499 3.398 3.735v2.341c0 .75.093.89.527 1.206a.61.61 0 0 1 .281.503c0 .281-.21.597-.539.597h-2.46v.012c0 .668-.539 1.206-1.207 1.206-.62 0-1.206-.539-1.206-1.218h-2.39c-.375 0-.598-.304-.598-.608 0-.164.059-.328.21-.445.493-.316.587-.492.587-1.288V5.099c0-2.33 1.324-3.899 3.397-3.899" clip-rule="evenodd"/></g><defs><clipPath id="a"><path fill="#fff" d="M0 0h12v12H0z"/></clipPath></defs></svg>
